X: 23627
T: Lilting Fisherman, The
R: jig
M: 6/8
K: Amajor
c/d/|ecA AGA|a3 agf|ecA ABG|E3 E c/d/|
ecA AGA|a3 def|fec edB|A3 A2||
G/A/|B2 B B2 B|g3 gfe|e^de BAG|BAF F2 G/A/|
B2 B Be^d|cBc f3|BcB Bc^d|e3 e2||
E|=c3 cBA|AGA B2 E|dcd =fed|d=cB c2 e|
e2 a a2 =g|=g3 fed|=c=fe Adc|A3 A2||

